X: 19027
T: Into The Wood
R: reel
M: 4/4
K: Gmajor
A|BG G2 BGAG|EAA^G AcBA|GFGA Bdef|g2 fa gedc|
BG G2 BGAG|EAA^G AcBA|GABd gedB|cedc BG G:|
f|g2 dg bgag|eaab agef|gedB GBdB|ecAB cdef|
g2 dg bgag|eaab aged|Bdef gedB|cedc BG G:|

